assets/icons/qvision/open_in_browser.svg

<svg xmlns="http://www.w3.org/2000/svg" height="24" viewBox="0 0 24 24" width="24"><path d="M0 0h24v24H0z" fill="none"/><path d="M19 4H5c-1.11 0-2 .9-2 2v12c0 1.1.89 2 2 2h4v-2H5V8h14v10h-4v2h4c1.1 0 2-.9 2-2V6c0-1.1-.89-2-2-2zm-7 6l-4 4h3v6h2v-6h3l-4-4z"/></svg>

<svg width="24" height="24" viewBox="0 0 24 24" fill="none" xmlns="http://www.w3.org/2000/svg">
<g clip-path="url(#clip0_147_4474)">
<path d="M19 4H5C3.89 4 3 4.9 3 6V18C3 19.1 3.89 20 5 20H9V18H5V8H19V18H15V20H19C20.1 20 21 19.1 21 18V6C21 4.9 20.11 4 19 4ZM12 10L8 14H11V20H13V14H16L12 10Z" fill="#323232"/>
</g>
<defs>
<clipPath id="clip0_147_4474">
<rect width="24" height="24" fill="white"/>
</clipPath>
</defs>
</svg>
